X: 27357
T: Mists Among The Stones
R: reel
M: 4/4
K: Gmajor
|:JB8-|B2{c/}B A JgfdB|JB8-|B2zAe/{a/}e/d JcB|JE6 (3EFG|JF6 (3DEF|{A/} JG4 A JA3-|A8:|
gfdB Je4-|e6z2|gfdB JB4-|B6z2|gfdB Je4-|ez (3EFG JF4|(3DEF{A/} JG6-|G A JA6|
|:JB8-|B2{c/}B A JgfdB|JB8-|B2zAe/{a/}e/d JcB|JE6 (3EFG|JF6 (3DEF|{A/} JG4 A JA3-|A8:|
gfdB Je4-|e6z2|gfdB JB4-|B6z2|gfdB Je4-|ez (3EFG JF4|EDE6-|E8|
gfdB Je4-|e6z2|gf2e/e/d/e/ JB3-|B6z2|gfdB Je4-|ez (3EFG JF4|EDE6-|E8|

